!!! OTL: Berkowitz600
!!! Chapter: 1
!!! Section: V
!!! Page: 152
!!! Mode: 
!!! Encoder: AR
**kern
*staff1
=1-
!!pagebreak:original
*clefF4
*k[]
*C:
*M4/4
8r
8C#/
8C#/L
8C#/J
8C#\L
8G\J
4G\
=2
8r
8G#\
8B\L
8B-\J
8Gn\L
8A-\J
4D\
=3
8C#\L
8E\J
4F\
8D\L
8F\J
4F#\
=4
8cn\L
8B-\
8A-\
8G-\J
8An\L
8Fn\
8E-\
8D-\J
=5
!!linebreak:original
8BBn\L
8F\
8BB\
8F\J
8F#\L
8Dn\J
4D\
=6
8G#\L
8A\
8c\
8B\J
8G#\L
8A\J
4E\
=7
8F\L
8BB\
8F\
8BB\J
8E\L
8E-\J
4BB-/
=8
!!linebreak:original
8BBn/L
8C#/
8D#/
8E#/J
8Cn\L
8E-\
8F#\
8A\J
=9
8B\L
8Fn\
8A\
8G#\J
8En\L
8E-\J
4AA-/
==
*-
